X:1
T:,,Авiатоъ.''
T:,,Авiаторъ.''
T:МАРШЪ
T:Соч. А. ЧЕРНЯВСКАГО.
C:Соч. А. ЧЕРНЯВСКАГО.
%%score { ( 1 4 ) | ( 2 3 ) }
L:1/8
Q:1/4=90
M:2/4
K:F
V:1 treble nm="Piano" snm="Pno."
V:4 treble 
V:2 bass 
V:3 bass 
V:1
!ff! F/A/ | .c.A .f.d | .c.A .F.A | c C/C/ CC | C z !>![CEBc] (3C/F/B/ |:!mf! cc cc | %6
 .c/.d/.c/.A/ FA | [DG] z [CE] z | [A,CF] z z (3C/F/A/ | c>"_cresc."c cc | .c/.d/.c/.A/ .F.A |1 %11
 .G/.E/.G/.c/ e[F=Bd] | [EGc]!>(! z z (3C/F/A/!>)! :|2 ed/c/ =Bc/B/ | A [Cc]/[Cc]/ [Cc][Cc] |: %15
!f! !>![Gc].B .^F.G | !>![Gc].B .^F.G | !>![FAd] z !>![FAd] z | !>![FAd] z .A.c | %19
 !>![Be] z !>![Be] z | [Be] z =Bc | !>![Acg] z [Acg] z | [Acg].f.c.A | !>![Gc].B.^F.G | %24
 !>![Gc].B.^F.G | !>![FAd] z !>![FAd] z | !>![FAd] z .c.d | !>![^Fc_e]/[Fce]/[Fce] .c.d | %28
 !>![Gc=e]/[Gce]/[Gce] .G.c | [ce] z [=Bd] z |1 [Gc] z z2 :|2 %31
 [Gc]!ff! [EGc]/[EGc]/ [EGc] (3C/F/A/ ||!mf! cc cc | .c/.d/.c/.A/ FA | [DG] z [CE] z | %35
 [A,CF] z z (3C/F/A/ | c>"_cresc."c cc | .c/.d/.c/.A/ .F.A | .G/.E/.G/.c/ e[F=Bd] | %39
 [EGc]!>(! z z (3C/F/A/!>)! | cc cc | .c/.d/.c/.A/ .F.A | .[DG] z .[CE] z | [A,CF] z z (3C/F/A/ | %44
 c>c cc |!<(! !>![Ff]2 F[FG]!<)! | [FA]F/A/ [EGc][EGc] |!ff! F [Acf]/[Acf]/ [Acf] z!fine! || %48
[K:Bb][M:2/4]{F,G,A,} B, [F,B,D]!>(! z [F,B,D] | z [F,B,D] z F!>)! ||!mf! !>![B,B]2 !>![Ff]2 | %51
 !>![B,B]3 F | .[B,B].[A,A].[B,B].[Cc] | [A,A]3 F | !>![Cc]2 !>![Ff]2 | [Cc]3 F | %56
 [Cc]>[Cc] [^C^c][Cc] | [A,A]3 F | !>![B,B]2 !>![Ff]2 | [B,B]3 F |!<(! [B,B]>[B,B] [Ff][Ff]!<)! | %61
 [EBe]3!f! [EBe] | [=EB=e]3 [EBe] | [FBf]>[GBg] [FBf][_EB_e] | !>![FBd]2 !>![FAef]2 | %65
 [DFB] z z [Ff] |!ff! !>![Bb]2 !>![ff']2 | [Bb]3 f | [Bb][Aa][Bb][cc'] | [Aa]3 f | %70
 !>![cc']2 !>![ff']2 | [cc']3 f | [cc']>[cc'] [^c^c'][cc'] | [dd']3 f | !>![Bb]2 !>![ff']2 | %75
 [Bb]3 f | [Bb]>[Bb] [ff'][ff'] | [ee']2 z [ee'] | !>![=e=e']3 [ee'] | [ff']>[gg'][ff'][_e_e'] | %80
 [dd']2 [cc']2 | [Bb]!ff! [dfb]/[dfb]/ [dfb] z!D.C.! |] %82
V:2
 F,/A,/ | .C.A, .F.D | .C.A, .F,.A, | C C,/C,/ C,C, | C, z !>![C,,C,] z |: [F,,F,][A,CF] C,[A,CF] | %6
 F,[A,CF] C,[A,CF] | [B,,B,] z [C,B,] z | .F,.E,.D,.C, | F,[A,CF] C,[A,CF] | F,[A,CF] C,[A,CF] |1 %11
 [E,G,C] z z [G,,G,] | [C,C][_B,,_B,][A,,A,][G,,G,] :|2 [E,A,C] z [E,^G,D][E,G,D] | [A,C] z z2 |: %15
 !>!E,[G,B,C] C,[G,B,C] | !>!E,[G,B,C] C,[G,B,C] | F,[A,C] C,[A,C] | F,[A,C] C,[A,C] | %19
 G,[B,CE] C,[B,CE] | G,[B,CE] C,[B,CE] | F,[A,CF] C,[A,CF] | F,.F.C.A, | !>!E,[G,B,C] C,[G,B,C] | %24
 !>!E,[G,B,C] C,[G,B,C] | F,[A,C] C,[A,C] | F,[A,C] C,[A,C] | !>![_A,C_E]/[A,CE]/[A,CE] .C.D | %28
 !>![G,C=E]/[G,CE]/[G,CE] .G,.C | [G,CE] z [G,=B,F][G,B,F] |1 [CE] .A,._B,.G, :|2 %31
 [CE] [C,C]/[C,C]/ [C,C] z || [F,,F,][A,CF] C,[A,CF] | F,[A,CF] C,[A,CF] | [B,,B,] z [C,B,] z | %35
 .F,.E,.D,.C, | F,[A,CF] C,[A,CF] | F,[A,CF] C,[A,CF] | [E,G,C] z z [G,,G,] | %39
 [C,C][_B,,_B,][A,,A,][G,,G,] | [F,,F,][A,CF] C,[A,CF] | F,[A,CF] C,[A,CF] | .[B,,B,] z .[C,B,] z | %43
 .F,.E,.D,.C, | F,[A,CF] _E,[F,A,C] | D,[F,B,] _D,[F,=B,] | [C,F,A,C] z [C,B,C][C,B,C] | %47
 [F,A,C] [F,,F,]/[F,,F,]/"^Fine." [F,,F,] z ||[K:Bb][M:2/4]{F,,G,,A,,} B,, z F,, z | B,, z F,, z || %50
 B,,[D,F,] F,,[D,F,] | B,,[D,F,] F,,[D,F,] | B,,[D,F,] F,,[D,F,] | C,[E,F,] F,,[E,F,] | %54
 A,,[C,E,F,] F,,[C,E,F,] | A,,[C,E,F,] F,,[C,E,F,] | A,,[C,E,F,] F,,[C,E,F,] | %57
 B,,[D,F,] F,,[D,F,] | B,,[D,F,] F,,[D,F,] | B,,[D,F,] F,,[D,F,] | B,,[D,F,] _A,[B,D] | %61
 [G,B,E]3 [G,B,] | [_G,B,C]3 [G,B,C] | [F,B,D]>[E,B,E] [F,B,D][_G,B,C] | !>![F,B,D]2 !>![F,,F,]2 | %65
 [B,,B,] [F,F][_E,E][C,C] | [B,,B,][DF] F,[DF] | [B,,B,][DF] F,[DF] | B,[DF] F,[DF] | %69
 C[EF] F,[A,EF] | A,[CEF] F,[CEF] | A,[CEF] F,[CEF] | A,[CEF] F,[CEF] | B,[DF] F,[DF] | %74
 B,[DF] F,[DF] | B,[DF] F,[DF] | B,[B,D] _A,[B,D] | [G,B,E]2 z [G,B,] | !>![_G,B,C]3 [G,B,C] | %79
 [F,B,D][E,B,E][F,B,D][=G,B,C] | [F,B,D]2 [F,A,_E][F,A,E] | %81
 [B,D]"_D. C. al Fine." [B,,B,]/[B,,B,]/ [B,,B,] z |] %82
V:3
 x | x4 | x4 | x4 | x4 |: x4 | x4 | x4 | x4 | x4 | x4 |1 x4 | x4 :|2 x4 | x4 |: x4 | x4 | x4 | x4 | %19
 x4 | x4 | x4 | x4 | x4 | x4 | x4 | x4 | x4 | x4 | x4 |1 x4 :|2 x4 || x4 | x4 | x4 | x4 | x4 | x4 | %38
 x4 | x4 | x4 | x4 | x4 | x4 | F,2 _E,2 | D,2 _D,2 | x4 | x4 ||[K:Bb][M:2/4] x4 | x4 || x4 | x4 | %52
 x4 | x4 | x4 | x4 | x4 | x4 | x4 | x4 | B,,2 _A,2 | x B,/B,/ B, x | z B,/B,/ B, x | x4 | x4 | x4 | %66
 x4 | x4 | x4 | x4 | x4 | x4 | x4 | x4 | x4 | x4 | B,2 _A,2 | x B,/B,/ B, x | x B,/B,/ B, x | x4 | %80
 x4 | x4 |] %82
V:4
 x | x4 | x4 | x4 | x4 |: x4 | x4 | x4 | x4 | x4 | x4 |1 x4 | x4 :|2 x4 | x4 |: x4 | x4 | x4 | x4 | %19
 x4 | x4 | x4 | x4 | x4 | x4 | x4 | x4 | x4 | x4 | x4 |1 x4 :|2 x4 || x4 | x4 | x4 | x4 | x4 | x4 | %38
 x4 | x4 | x4 | x4 | x4 | x4 | x4 | x4 | x4 | x4 ||[K:Bb][M:2/4] x4 | x4 || x4 | x4 | x4 | %53
 z F/F/ FF | x4 | x4 | x4 | z F/F/ FF | x4 | x4 | x4 | z B/B/ B x | z B/B/ B x | x4 | x4 | x4 | %66
 x4 | x4 | x4 | z f/f/ ff | x4 | x4 | x4 | z f/f/ ff | x4 | x4 | x4 | z b/b/ b x | x b/b/ b x | %79
 x4 | x4 | x4 |] %82

